packages/form-js-viewer/src/render/components/form-fields/icons/Add.svg

<svg width="16" height="16" viewBox="0 0 16 16" fill="none" xmlns="http://www.w3.org/2000/svg">
  <path d="M8 2C11.3 2 14 4.7 14 8C14 11.3 11.3 14 8 14C4.7 14 2 11.3 2 8C2 4.7 4.7 2 8 2ZM8 1C4.15 1 1 4.15 1 8C1 11.85 4.15 15 8 15C11.85 15 15 11.85 15 8C15 4.15 11.85 1 8 1Z" fill="currentColor"/>
  <path d="M12 7.5H8.5V4H7.5V7.5H4V8.5H7.5V12H8.5V8.5H12V7.5Z" fill="currentColor"/>
</svg>

<svg xmlns="http://www.w3.org/2000/svg" width="16" height="16" fill="none"><path fill="currentColor" d="M8 2c3.3 0 6 2.7 6 6s-2.7 6-6 6-6-2.7-6-6 2.7-6 6-6Zm0-1C4.15 1 1 4.15 1 8s3.15 7 7 7 7-3.15 7-7-3.15-7-7-7Z"/><path fill="currentColor" d="M12 7.5H8.5V4h-1v3.5H4v1h3.5V12h1V8.5H12v-1Z"/></svg>
